X:1
T: James Moray of Abercarney
C:
R:Strathspey
Q: 128
K:G
M:4/4
L:1/16
|:B,2|G,3B, D3G EG3 D3G|A3B cBAG E4 E3G|G,3B, D3G EG3 D3e|d3B dcBA G4 G,2B,2|
G,3B, D3G EG3 D3G|A3B cBAG E4 E3G|G,3B, D3G EG3 D3e|d3B dcBA G4 G2e2|
d2ef g3d e3d g3B|c3a B3g A4 A2Bc|d2ef g3d e3d g3e|d3B dcBA G4 G2e2|
d2ef g3d e3d g3B|((3c2a2c2) ((3B2g2B2) A4 A2Bc|((3d2c2B2) ((3c2B2A2) B3G A3B|d3e dcBA G4-G2:|
